packages/react/src/components/base/Icon/assets/icon-arrows-in-simple.svg

<svg width="24" height="24" viewBox="0 0 24 24" xmlns="http://www.w3.org/2000/svg" fill="currentColor"> <path d="M19.796 5.29492L16.0938 8.99992H17.875C18.1734 8.99992 18.4596 9.11845 18.6705 9.32942C18.8815 9.5404 19 9.82655 19 10.1249C19 10.4233 18.8815 10.7094 18.6705 10.9204C18.4596 11.1314 18.1734 11.2499 17.875 11.2499H13.375C13.0767 11.2499 12.7905 11.1314 12.5795 10.9204C12.3686 10.7094 12.25 10.4233 12.25 10.1249V5.62492C12.25 5.32655 12.3686 5.0404 12.5795 4.82942C12.7905 4.61845 13.0767 4.49992 13.375 4.49992C13.6734 4.49992 13.9596 4.61845 14.1705 4.82942C14.3815 5.0404 14.5 5.32655 14.5 5.62492V7.40617L18.2041 3.70117C18.4154 3.48983 18.7021 3.37109 19.001 3.37109C19.2999 3.37109 19.5865 3.48983 19.7978 3.70117C20.0092 3.91251 20.1279 4.19916 20.1279 4.49804C20.1279 4.79693 20.0092 5.08358 19.7978 5.29492H19.796ZM9.62504 12.7499H5.12504C4.82667 12.7499 4.54052 12.8684 4.32954 13.0794C4.11856 13.2904 4.00004 13.5766 4.00004 13.8749C4.00004 14.1733 4.11856 14.4594 4.32954 14.6704C4.54052 14.8814 4.82667 14.9999 5.12504 14.9999H6.90629L3.2041 18.704C2.99276 18.9153 2.87402 19.202 2.87402 19.5009C2.87402 19.7997 2.99276 20.0864 3.2041 20.2977C3.41544 20.5091 3.70209 20.6278 4.00097 20.6278C4.29986 20.6278 4.58651 20.5091 4.79785 20.2977L8.50004 16.5937V18.3749C8.50004 18.6733 8.61856 18.9594 8.82954 19.1704C9.04052 19.3814 9.32667 19.4999 9.62504 19.4999C9.92341 19.4999 10.2096 19.3814 10.4205 19.1704C10.6315 18.9594 10.75 18.6733 10.75 18.3749V13.8749C10.75 13.5766 10.6315 13.2904 10.4205 13.0794C10.2096 12.8684 9.92341 12.7499 9.62504 12.7499Z"/> </svg>

<svg viewBox="0 0 24 24" xmlns="http://www.w3.org/2000/svg" aria-hidden="true" fill="currentColor"><path d="M19.796 5.295 16.094 9h1.781a1.125 1.125 0 1 1 0 2.25h-4.5a1.125 1.125 0 0 1-1.125-1.125v-4.5a1.125 1.125 0 0 1 2.25 0v1.781l3.704-3.705a1.127 1.127 0 1 1 1.594 1.594zM9.625 12.75h-4.5a1.125 1.125 0 1 0 0 2.25h1.781l-3.702 3.704a1.127 1.127 0 1 0 1.594 1.594L8.5 16.594v1.78a1.125 1.125 0 1 0 2.25 0v-4.5a1.125 1.125 0 0 0-1.125-1.124"/></svg>
